;START_OF_HEADER
;HEADER_VERSION:0.1
;FLAVOR:Griffin
;GENERATOR.NAME:Cura_SteamEngine
;GENERATOR.VERSION:5.10.2
;GENERATOR.BUILD_DATE:2025-07-28
;TARGET_MACHINE.NAME:Ultimaker 3 Extended
;EXTRUDER_TRAIN.0.INITIAL_TEMPERATURE:205
;EXTRUDER_TRAIN.0.MATERIAL.VOLUME_USED:98797
;EXTRUDER_TRAIN.0.MATERIAL.GUID:506c9f0d-e3aa-4bd4-b2d2-23e2425b1aa9
;EXTRUDER_TRAIN.0.NOZZLE.DIAMETER:0.4
;EXTRUDER_TRAIN.0.NOZZLE.NAME:AA 0.4
;BUILD_PLATE.INITIAL_TEMPERATURE:60
;PRINT.TIME:15632
;PRINT.GROUPS:1
;PRINT.SIZE.MIN.X:9
;PRINT.SIZE.MIN.Y:6
;PRINT.SIZE.MIN.Z:0.3
;PRINT.SIZE.MAX.X:203.377
;PRINT.SIZE.MAX.Y:174.377
;PRINT.SIZE.MAX.Z:30
;SLICE_UUID:04acdc28-197d-45ba-b3f2-741fbd89396a
;END_OF_HEADER
;Generated with Cura_SteamEngine 5.10.2
T0

M82 ;absolute extrusion mode
G92 E0
M190 S60
M104 S205
M109 S205
G0 F15000 X9 Y6 Z2
G280
G1 F1500 E-6.5
;LAYER_COUNT:100
;LAYER:0
M106 S255
M204 S1000
M205 X20 Y20
G1 F600 Z2.3
G0 F15000 X32.503 Y41.906 Z2.3
;TYPE:SKIRT
G1 F600 Z0.3
G1 F1500 E0
G1 F1800 X34.23 Y40.972 E0.0554
G1 X36.023 Y40.639 E0.10685
G1 X42.264 Y40.639 E0.28295
G1 X44.099 Y41.022 E0.33584
G1 X45.919 Y42.215 E0.39724
G1 X47.123 Y43.52 E0.44734
G1 X48.012 Y45.162 E0.50003
G1 X48.123 Y45.603 E0.51286
G1 X133.918 Y45.601 E2.93364
G1 X134.121 Y44.822 E2.95635
G1 X135.254 Y43.093 E3.01468
G1 X136.558 Y41.89 E3.06474
G1 X138.285 Y40.956 E3.12014
G1 X140.078 Y40.623 E3.17159
G1 X146.247 Y40.623 E3.34565
G1 X148.082 Y41.006 E3.39855
G1 X149.902 Y42.199 E3.45995
G1 X151.105 Y43.503 E3.51001
G1 X151.994 Y45.147 E3.56274
G1 X152.108 Y45.601 E3.57595
G1 X197.252 Y45.601 E4.84973
G1 X199.087 Y45.984 E4.90262
G1 X200.907 Y47.177 E4.96402
G1 X202.11 Y48.481 E5.01408
G1 X203.044 Y50.208 E5.06948
G1 X203.377 Y52.001 E5.12093
G1 X203.377 Y58.332 E5.29957
G1 X202.907 Y60.296 E5.35655
G1 X201.592 Y62.107 E5.4197
G1 X200.293 Y63.251 E5.46854
G1 X198.364 Y64.139 E5.52846
G1 X196.872 Y64.338 E5.57093
G1 X48.339 Y64.363 E9.76191
G1 X48.339 Y70.605 E9.93803
G1 X197.346 Y70.605 E14.14239
G1 X199.31 Y71.075 E14.19937
G1 X201.121 Y72.39 E14.26252
G1 X202.265 Y73.689 E14.31136
G1 X203.153 Y75.618 E14.37128
G1 X203.352 Y77.11 E14.41375
G1 X203.377 Y133.379 E16.00142
G1 X202.907 Y135.343 E16.05841
G1 X201.592 Y137.154 E16.12155
G1 X200.293 Y138.298 E16.17039
G1 X198.364 Y139.186 E16.23031
G1 X196.872 Y139.385 E16.27278
G1 X48.271 Y139.41 E20.46568
G1 X48.271 Y145.646 E20.64164
G1 X197.252 Y145.646 E24.84526
G1 X199.087 Y146.029 E24.89815
G1 X200.907 Y147.222 E24.95956
G1 X202.11 Y148.526 E25.00962
G1 X203.044 Y150.253 E25.06501
G1 X203.377 Y152.046 E25.11647
G1 X203.377 Y158.349 E25.29431
G1 X202.907 Y160.315 E25.35135
G1 X201.591 Y162.129 E25.41458
G1 X200.294 Y163.271 E25.46334
G1 X198.354 Y164.168 E25.52365
G1 X196.466 Y164.381 E25.57726
G1 X189.199 Y164.374 E25.7823
G1 X48.349 Y164.374 E29.75651
G1 X48.349 Y168.298 E29.86722
G1 X47.919 Y170.192 E29.92202
G1 X46.672 Y172.03 E29.98469
G1 X44.537 Y173.85 E30.06385
G1 X42.173 Y174.377 E30.13219
G1 X36.003 Y174.377 E30.30628
G1 X34.366 Y174.059 E30.35334
G1 X32.692 Y173.301 E30.40519
G1 X30.85 Y171.562 E30.47666
G1 X29.836 Y169.33 E30.54584
G1 X29.635 Y167.696 E30.59229
G1 X29.623 Y46.764 E34.00449
G1 X30.006 Y44.929 E34.05738
G1 X31.199 Y43.109 E34.11878
G1 X32.503 Y41.906 E34.16884
G0 F15000 X32.855 Y42.398
G1 F1800 X34.432 Y41.545 E34.21943
G1 X36.079 Y41.239 E34.26669
G1 X42.204 Y41.239 E34.43952
G1 X43.864 Y41.585 E34.48736
G1 X45.528 Y42.677 E34.54352
G1 X46.63 Y43.871 E34.58936
G1 X47.484 Y45.448 E34.63997
G1 X47.624 Y46.203 E34.66163
G1 X134.407 Y46.201 E37.11029
G1 X134.623 Y45.151 E37.14053
G1 X135.716 Y43.484 E37.19678
G1 X136.91 Y42.382 E37.24262
G1 X138.487 Y41.529 E37.29321
G1 X140.134 Y41.223 E37.34048
G1 X146.187 Y41.223 E37.51127
G1 X147.847 Y41.569 E37.55912
G1 X149.511 Y42.661 E37.61527
G1 X150.613 Y43.855 E37.66112
G1 X151.466 Y45.432 E37.71171
G1 X151.609 Y46.201 E37.73378
G1 X197.192 Y46.201 E39.01994
G1 X198.852 Y46.547 E39.06779
G1 X200.516 Y47.639 E39.12394
G1 X201.618 Y48.833 E39.16979
G1 X202.471 Y50.41 E39.22038
G1 X202.777 Y52.057 E39.26764
G1 X202.777 Y58.259 E39.44264
G1 X202.351 Y60.04 E39.49431
G1 X201.142 Y61.705 E39.55237
G1 X199.964 Y62.742 E39.59665
G1 X198.196 Y63.556 E39.65157
G1 X196.793 Y63.743 E39.69151
G1 X47.739 Y63.763 E43.89719
G1 X47.739 Y71.205 E44.10717
G1 X197.273 Y71.205 E48.3264
G1 X199.054 Y71.631 E48.37807
G1 X200.719 Y72.84 E48.43613
G1 X201.756 Y74.018 E48.48041
G1 X202.57 Y75.786 E48.53533
G1 X202.757 Y77.189 E48.57526
G1 X202.777 Y133.306 E50.15865
G1 X202.351 Y135.087 E50.21032
G1 X201.142 Y136.752 E50.26838
G1 X199.964 Y137.789 E50.31266
G1 X198.196 Y138.603 E50.36758
G1 X196.793 Y138.79 E50.40752
G1 X47.671 Y138.81 E54.61512
G1 X47.671 Y146.246 E54.82493
G1 X197.192 Y146.246 E59.04379
G1 X198.852 Y146.592 E59.09164
G1 X200.516 Y147.684 E59.1478
G1 X201.618 Y148.878 E59.19364
G1 X202.471 Y150.455 E59.24423
G1 X202.777 Y152.102 E59.2915
G1 X202.777 Y158.277 E59.46573
G1 X202.351 Y160.06 E59.51745
G1 X201.144 Y161.723 E59.57543
G1 X199.964 Y162.762 E59.6198
G1 X198.189 Y163.583 E59.67498
G1 X196.467 Y163.781 E59.72388
G1 X189.2 Y163.774 E59.92893
G1 X47.749 Y163.774 E63.92009
G1 X47.749 Y168.231 E64.04585
G1 X47.359 Y169.95 E64.09558
G1 X46.222 Y171.625 E64.1527
G1 X44.262 Y173.296 E64.22538
G1 X42.105 Y173.777 E64.28773
G1 X36.061 Y173.777 E64.45827
G1 X34.55 Y173.483 E64.5017
G1 X33.03 Y172.795 E64.54878
G1 X31.347 Y171.206 E64.61409
G1 X30.421 Y169.168 E64.67725
G1 X30.231 Y167.623 E64.72117
G1 X30.223 Y46.824 E68.12962
G1 X30.569 Y45.164 E68.17746
G1 X31.661 Y43.5 E68.23362
G1 X32.855 Y42.398 E68.27946
G0 F15000 X33.206 Y42.891
G1 F1800 X34.636 Y42.117 E68.32534
G1 X36.134 Y41.839 E68.36833
G1 X42.143 Y41.839 E68.53788
G1 X43.629 Y42.149 E68.58071
G1 X45.137 Y43.139 E68.63161
G1 X46.137 Y44.222 E68.67321
G1 X46.911 Y45.652 E68.71909
G1 X47.125 Y46.803 E68.75212
G1 X134.897 Y46.801 E71.22868
G1 X135.188 Y45.384 E71.26949
G1 X136.178 Y43.875 E71.32042
G1 X137.261 Y42.875 E71.36201
G1 X138.691 Y42.101 E71.40789
G1 X140.189 Y41.823 E71.45088
G1 X146.126 Y41.823 E71.6184
G1 X147.612 Y42.133 E71.66123
G1 X149.12 Y43.123 E71.71213
G1 X150.12 Y44.206 E71.75372
G1 X150.894 Y45.636 E71.7996
G1 X151.11 Y46.801 E71.83303
G1 X197.131 Y46.801 E73.13155
G1 X198.617 Y47.111 E73.17438
G1 X200.125 Y48.101 E73.22528
G1 X201.125 Y49.184 E73.26687
G1 X201.899 Y50.614 E73.31275
G1 X202.177 Y52.112 E73.35574
G1 X202.177 Y58.187 E73.52715
G1 X201.795 Y59.785 E73.57351
G1 X200.696 Y61.298 E73.62628
G1 X199.633 Y62.234 E73.66624
G1 X198.028 Y62.973 E73.7161
G1 X196.714 Y63.148 E73.7535
G1 X47.139 Y63.163 E77.97388
G1 X47.139 Y71.805 E78.21773
G1 X197.201 Y71.805 E82.45185
G1 X198.799 Y72.187 E82.49821
G1 X200.312 Y73.286 E82.55097
G1 X201.248 Y74.349 E82.59094
G1 X201.987 Y75.954 E82.64079
G1 X202.162 Y77.268 E82.6782
G1 X202.177 Y133.234 E84.25732
G1 X201.795 Y134.832 E84.30368
G1 X200.696 Y136.345 E84.35645
G1 X199.633 Y137.281 E84.39641
G1 X198.028 Y138.02 E84.44627
G1 X196.714 Y138.195 E84.48367
G1 X47.071 Y138.21 E88.70597
G1 X47.071 Y146.846 E88.94964
G1 X197.131 Y146.846 E93.18371
G1 X198.617 Y147.156 E93.22654
G1 X200.125 Y148.146 E93.27744
G1 X201.125 Y149.229 E93.31904
G1 X201.899 Y150.659 E93.36492
G1 X202.177 Y152.157 E93.4079
G1 X202.177 Y158.205 E93.57855
G1 X201.795 Y159.803 E93.62491
G1 X200.695 Y161.318 E93.67774
G1 X199.634 Y162.253 E93.71764
G1 X198.024 Y162.998 E93.7677
G1 X196.468 Y163.181 E93.8119
G1 X189.201 Y163.174 E94.01695
G1 X47.149 Y163.174 E98.02506
G1 X47.149 Y168.164 E98.16586
G1 X46.799 Y169.705 E98.21045
G1 X45.77 Y171.222 E98.26217
G1 X43.986 Y172.743 E98.32832
G1 X42.038 Y173.177 E98.38463
G1 X36.119 Y173.177 E98.55164
G1 X34.736 Y172.908 E98.59139
G1 X33.367 Y172.288 E98.6338
G1 X31.844 Y170.85 E98.6929
G1 X31.006 Y169.006 E98.75005
G1 X30.827 Y167.55 E98.79144
G1 X30.823 Y46.885 E102.19611
G1 X31.133 Y45.399 E102.23894
G1 X32.123 Y43.891 E102.28984
G1 X33.206 Y42.891 E102.33143
G0 F15000 X33.557 Y43.384
G1 F1800 X34.84 Y42.689 E102.3726
G1 X36.189 Y42.439 E102.41131
G1 X42.082 Y42.439 E102.57759
G1 X43.394 Y42.713 E102.6154
G1 X44.746 Y43.601 E102.66104
G1 X45.644 Y44.573 E102.69838
G1 X46.339 Y45.856 E102.73955
G1 X46.626 Y47.403 E102.78395
G1 X135.478 Y47.401 E105.29098
G1 X135.491 Y46.868 E105.30603
G1 X135.752 Y45.618 E105.34206
G1 X136.64 Y44.266 E105.3877
G1 X137.612 Y43.368 E105.42504
G1 X138.895 Y42.673 E105.46621
G1 X140.244 Y42.423 E105.50492
G1 X146.065 Y42.423 E105.66916
G1 X147.377 Y42.697 E105.70698
G1 X148.729 Y43.585 E105.75262
G1 X149.627 Y44.557 E105.78996
G1 X150.322 Y45.84 E105.83113
G1 X150.611 Y47.401 E105.87592
G1 X197.07 Y47.401 E107.1868
G1 X198.382 Y47.675 E107.22462
G1 X199.734 Y48.563 E107.27026
G1 X200.632 Y49.535 E107.3076
G1 X201.327 Y50.818 E107.34877
G1 X201.577 Y52.167 E107.38748
G1 X201.577 Y58.115 E107.55531
G1 X201.239 Y59.53 E107.59636
G1 X200.249 Y60.893 E107.64389
G1 X199.304 Y61.725 E107.67942
G1 X197.86 Y62.39 E107.72427
G1 X196.635 Y62.553 E107.75914
G1 X46.539 Y62.563 E111.99423
G1 X46.539 Y72.405 E112.27193
G1 X197.129 Y72.405 E116.52095
G1 X198.544 Y72.743 E116.562
G1 X199.907 Y73.733 E116.60953
G1 X200.739 Y74.678 E116.64506
G1 X201.404 Y76.122 E116.68991
G1 X201.567 Y77.347 E116.72478
G1 X201.577 Y133.162 E118.29965
G1 X201.239 Y134.577 E118.3407
G1 X200.249 Y135.94 E118.38823
G1 X199.304 Y136.772 E118.42376
G1 X197.86 Y137.437 E118.46861
G1 X196.635 Y137.6 E118.50348
G1 X46.471 Y137.61 E122.74048
G1 X46.471 Y147.446 E123.01801
G1 X197.07 Y147.446 E127.26729
G1 X198.382 Y147.72 E127.30511
G1 X199.734 Y148.608 E127.35075
G1 X200.632 Y149.58 E127.38809
G1 X201.327 Y150.863 E127.42926
G1 X201.577 Y152.212 E127.46797
G1 X201.577 Y158.133 E127.63504
G1 X201.239 Y159.548 E127.67608
G1 X200.249 Y160.911 E127.72362
G1 X199.304 Y161.744 E127.75916
G1 X197.858 Y162.413 E127.80412
G1 X196.469 Y162.581 E127.84359
G1 X189.202 Y162.574 E128.04864
G1 X46.549 Y162.574 E132.07371
G1 X46.549 Y168.097 E132.22955
G1 X46.239 Y169.463 E132.26907
G1 X45.32 Y170.817 E132.31524
G1 X43.711 Y172.189 E132.37491
G1 X41.97 Y172.577 E132.42524
G1 X36.178 Y172.577 E132.58866
G1 X34.92 Y172.332 E132.62482
G1 X33.705 Y171.782 E132.66246
G1 X32.341 Y170.494 E132.71539
G1 X31.591 Y168.844 E132.76653
G1 X31.423 Y167.477 E132.80539
G1 X31.423 Y46.946 E136.20627
G1 X31.697 Y45.634 E136.24409
G1 X32.585 Y44.282 E136.28973
G1 X33.557 Y43.384 E136.32707
G0 F15000 X33.908 Y43.877
G1 F1800 X35.044 Y43.262 E136.36352
G1 X36.245 Y43.039 E136.39799
G1 X42.021 Y43.039 E136.56096
G1 X43.161 Y43.277 E136.59382
G1 X44.353 Y44.06 E136.63406
G1 X45.151 Y44.924 E136.66725
G1 X45.766 Y46.06 E136.70369
G1 X45.989 Y47.261 E136.73816
G1 X45.989 Y48.003 E136.7591
G1 X136.078 Y48.001 E139.30103
G1 X136.078 Y46.991 E139.32953
G1 X136.316 Y45.851 E139.36239
G1 X137.099 Y44.659 E139.40263
G1 X137.963 Y43.861 E139.43582
G1 X139.099 Y43.246 E139.47227
G1 X140.3 Y43.023 E139.50673
G1 X146.004 Y43.023 E139.66768
G1 X147.144 Y43.261 E139.70054
G1 X148.336 Y44.044 E139.74078
G1 X149.134 Y44.908 E139.77396
G1 X149.749 Y46.044 E139.81041
G1 X149.972 Y47.245 E139.84488
G1 X149.972 Y48.001 E139.86621
G1 X197.009 Y48.001 E141.1934
G1 X198.149 Y48.239 E141.22626
G1 X199.341 Y49.022 E141.2665
G1 X200.139 Y49.886 E141.29968
G1 X200.754 Y51.022 E141.33613
G1 X200.977 Y52.223 E141.3706
G1 X200.977 Y58.042 E141.53479
G1 X200.682 Y59.276 E141.57059
G1 X199.803 Y60.486 E141.61278
G1 X198.973 Y61.217 E141.64399
G1 X197.692 Y61.807 E141.68378
G1 X196.556 Y61.958 E141.71612
G1 X45.939 Y61.963 E145.9659
G1 X45.939 Y73.005 E146.27746
G1 X197.056 Y73.005 E150.54136
G1 X198.29 Y73.3 E150.57716
G1 X199.5 Y74.179 E150.61935
G1 X200.231 Y75.009 E150.65056
G1 X200.821 Y76.29 E150.69036
G1 X200.972 Y77.426 E150.72269
G1 X200.977 Y133.089 E152.29327
G1 X200.682 Y134.323 E152.32907
G1 X199.803 Y135.533 E152.37127
G1 X198.973 Y136.264 E152.40247
G1 X197.692 Y136.854 E152.44227
G1 X196.556 Y137.005 E152.4746
G1 X45.871 Y137.01 E156.72631
G1 X45.871 Y148.046 E157.0377
G1 X197.009 Y148.046 E161.30218
G1 X198.149 Y148.284 E161.33504
G1 X199.341 Y149.067 E161.37528
G1 X200.139 Y149.931 E161.40847
G1 X200.754 Y151.067 E161.44492
G1 X200.977 Y152.268 E161.47938
G1 X200.977 Y158.06 E161.64281
G1 X200.682 Y159.294 E161.67861
G1 X199.803 Y160.504 E161.72081
G1 X198.974 Y161.235 E161.75199
G1 X197.689 Y161.829 E161.79194
G1 X196.47 Y161.981 E161.8266
G1 X189.203 Y161.974 E162.03164
G1 X45.949 Y161.974 E166.07367
G1 X45.949 Y168.03 E166.24455
G1 X45.679 Y169.218 E166.27892
G1 X44.868 Y170.414 E166.3197
G1 X43.436 Y171.635 E166.37279
G1 X41.902 Y171.977 E166.41714
G1 X36.236 Y171.977 E166.57701
G1 X35.106 Y171.757 E166.60949
G1 X34.042 Y171.275 E166.64245
G1 X32.838 Y170.138 E166.68918
G1 X32.175 Y168.68 E166.73437
G1 X32.023 Y167.477 E166.76858
G1 X32.023 Y47.007 E170.16775
G1 X32.261 Y45.867 E170.20061
G1 X33.044 Y44.675 E170.24085
G1 X33.908 Y43.877 E170.27403
G0 F15000 X34.259 Y44.37
G1 F1800 X35.248 Y43.834 E170.30577
G1 X36.3 Y43.639 E170.33596
G1 X41.961 Y43.639 E170.49569
G1 X42.925 Y43.84 E170.52348
G1 X43.962 Y44.521 E170.55848
G1 X44.658 Y45.275 E170.58743
G1 X45.194 Y46.264 E170.61917
G1 X45.389 Y47.316 E170.64936
G1 X45.389 Y48.603 E170.68568
G1 X136.678 Y48.601 E173.26147
G1 X136.678 Y47.051 E173.30521
G1 X136.879 Y46.087 E173.33299
G1 X137.56 Y45.05 E173.368
G1 X138.314 Y44.354 E173.39695
G1 X139.303 Y43.818 E173.42869
G1 X140.355 Y43.623 E173.45888
G1 X145.944 Y43.623 E173.61658
G1 X146.908 Y43.824 E173.64436
G1 X147.945 Y44.505 E173.67937
G1 X148.641 Y45.259 E173.70832
G1 X149.177 Y46.248 E173.74006
G1 X149.372 Y47.3 E173.77025
G1 X149.372 Y48.601 E173.80696
G1 X196.949 Y48.601 E175.14938
G1 X197.913 Y48.802 E175.17717
G1 X198.95 Y49.483 E175.21217
G1 X199.646 Y50.237 E175.24112
G1 X200.182 Y51.226 E175.27287
G1 X200.377 Y52.278 E175.30305
G1 X200.377 Y57.97 E175.46366
G1 X200.126 Y59.021 E175.49415
G1 X199.357 Y60.079 E175.53105
G1 X198.642 Y60.709 E175.55794
G1 X197.524 Y61.224 E175.59267
G1 X196.477 Y61.363 E175.62247
G1 X45.339 Y61.363 E179.88696
G1 X45.339 Y73.605 E180.23238
G1 X196.984 Y73.605 E184.51117
G1 X198.035 Y73.856 E184.54165
G1 X199.093 Y74.625 E184.57856
G1 X199.723 Y75.34 E184.60545
G1 X200.238 Y76.458 E184.64018
G1 X200.377 Y77.505 E184.66998
G1 X200.377 Y133.017 E186.2363
G1 X200.126 Y134.068 E186.26679
G1 X199.357 Y135.126 E186.30369
G1 X198.642 Y135.756 E186.33058
G1 X197.524 Y136.271 E186.36531
G1 X196.477 Y136.41 E186.39511
G1 X45.271 Y136.41 E190.66152
G1 X45.271 Y148.646 E191.00677
G1 X196.949 Y148.646 E195.28649
G1 X197.913 Y148.847 E195.31427
G1 X198.95 Y149.528 E195.34928
G1 X199.646 Y150.282 E195.37823
G1 X200.182 Y151.271 E195.40997
G1 X200.377 Y152.323 E195.44016
G1 X200.377 Y157.988 E195.6
G1 X200.126 Y159.039 E195.63049
G1 X199.357 Y160.097 E195.66739
G1 X198.644 Y160.726 E195.69422
G1 X197.52 Y161.245 E195.72915
G1 X196.471 Y161.381 E195.759
G1 X189.204 Y161.374 E195.96405
G1 X45.349 Y161.374 E200.02303
G1 X45.349 Y167.963 E200.20895
G1 X45.119 Y168.976 E200.23826
G1 X44.418 Y170.009 E200.27348
G1 X43.16 Y171.082 E200.32014
G1 X41.835 Y171.377 E200.35844
G1 X36.295 Y171.377 E200.51475
G1 X35.29 Y171.181 E200.54364
G1 X34.38 Y170.769 E200.57183
G1 X33.335 Y169.782 E200.61239
G1 X32.759 Y168.516 E200.65163
G1 X32.623 Y167.477 E200.6812
G1 X32.623 Y47.067 E204.07867
G1 X32.824 Y46.103 E204.10645
G1 X33.505 Y45.066 E204.14146
G1 X34.259 Y44.37 E204.17041
G0 F15000 X34.61 Y44.863
G1 F1800 X35.452 Y44.407 E204.19743
G1 X36.356 Y44.239 E204.22337
G1 X41.901 Y44.239 E204.37983
G1 X42.689 Y44.403 E204.40254
G1 X43.571 Y44.982 E204.43231
G1 X44.165 Y45.626 E204.45703
G1 X44.621 Y46.468 E204.48405
G1 X44.789 Y47.372 E204.50999
G1 X44.789 Y49.203 E204.56165
G1 X137.278 Y49.201 E207.17131
G1 X137.278 Y47.111 E207.23028
G1 X137.442 Y46.323 E207.25299
G1 X138.021 Y45.441 E207.28276
G1 X138.665 Y44.847 E207.30748
G1 X139.507 Y44.391 E207.3345
G1 X140.411 Y44.223 E207.36044
G1 X145.884 Y44.223 E207.51487
G1 X146.672 Y44.387 E207.53758
G1 X147.554 Y44.966 E207.56735
G1 X148.148 Y45.61 E207.59207
G1 X148.604 Y46.452 E207.61909
